X:1
T:Title
%%score ( 1 2 ) { 3 | 4 }
L:1/8
Q:1/4=105
M:4/4
K:G
V:1 treble nm="Grand Piano, Staff 1"
V:2 treble 
V:3 treble nm="Choir Pad, Shirland, SM"
V:4 bass 
V:1
 [DG]2 [FA]2 [GB]2 cA | [Fd][DF] [DG]6 | [DG]2 [DF][FA] [Ad]2 Be | [Fd][E^c] [Fd]6 | %4
w: By~Samuel~Stanley,~1805 * * * *||||
 GB[GB][FA] [FA][Ac][Ac][GB] | [GB][Bd][Bd][Ac] [Ac][GB] [GB]2 | [FA][FA]Bc de [GB]2 | [FA]2 G6- | %8
w: ||||
 G2 z2 z4 |] %9
w: |
V:2
 z4 z2 E2 | x8 | z4 z2 G2 | x8 | x8 | x8 | z2 G2 G2 z2 | x8 | x8 |] %9
V:3
 B,2 D2 D2 C2 | A,C[K:bass] B,6 | B,2 A,2 A,2 B,2 | A,2 A,6 | B,[K:treble]D D2 D2 D2 | %5
 D2 D2 D2 D2- | DDDE D[K:bass]G,G,B, | CC B,6- | B,2 z2 z4 |] %9
V:4
 G,2 D,2 G,2 C,2 | D,2 G,,6 | G,,2 D,2 F,2 G,2 | z2 D,6 | G,2 D,2 D,2 G,2 | G,2 F,2 G,2 D,2- | %6
 D,D,G,E, B,,C, D,2 | D,2 G,,6- | G,,2 z2 z4 |] %9

